packages/katcn/src/icons/svg/wifi-solid.svg

<svg width="24" height="25" viewBox="0 0 24 25" fill="none" xmlns="http://www.w3.org/2000/svg">
<path d="M12 22.412C13.215 22.412 14.2 21.427 14.2 20.212C14.2 18.997 13.215 18.012 12 18.012C10.785 18.012 9.79999 18.997 9.79999 20.212C9.79999 21.427 10.785 22.412 12 22.412Z" fill="black"/>
<path d="M16.1 13.912C14.9 13.212 13.5 12.812 12 12.812C10.5 12.812 9.09997 13.212 7.89997 13.912C7.19997 14.312 6.99997 15.212 7.39997 15.912C7.79997 16.612 8.69997 16.812 9.39997 16.412C10.8 15.512 13.2 15.512 14.6 16.412C14.8 16.512 15.1 16.612 15.3 16.612C15.8 16.612 16.3 16.412 16.5 15.912C17 15.212 16.8 14.312 16.1 13.912Z" fill="black"/>
<path d="M19.3 9.81201C17.3 8.51201 14.7 7.71201 12 7.71201C9.29996 7.71201 6.69996 8.41201 4.69996 9.81201C3.99996 10.212 3.79996 11.112 4.29996 11.812C4.69996 12.512 5.59996 12.612 6.29996 12.212C7.79996 11.212 9.89996 10.612 12 10.612C14.1 10.612 16.2 11.212 17.7 12.212C17.9 12.412 18.2 12.412 18.5 12.412C19 12.412 19.4 12.212 19.7 11.812C20.2 11.112 20 10.212 19.3 9.81201Z" fill="black"/>
<path d="M22.4 5.41201C19.6 3.41201 15.9 2.31201 12 2.31201C8.09999 2.31201 4.39999 3.41201 1.59999 5.41201C0.999987 5.81201 0.799987 6.71201 1.29999 7.41201C1.49999 7.71201 1.99999 8.01201 2.39999 8.01201C2.69999 8.01201 2.99999 7.91201 3.19999 7.71201C5.59999 6.11201 8.69999 5.21201 12 5.21201C15.3 5.21201 18.4 6.11201 20.7 7.71201C21.3 8.21201 22.2 8.01201 22.7 7.41201C23.2 6.71201 23 5.81201 22.4 5.41201Z" fill="black"/>
</svg>

<svg xmlns="http://www.w3.org/2000/svg" fill="none" viewBox="0 0 24 25"><path fill="#000" d="M12 22.412a2.2 2.2 0 1 0 0-4.4 2.2 2.2 0 0 0 0 4.4m4.1-8.5c-1.2-.7-2.6-1.1-4.1-1.1s-2.9.4-4.1 1.1c-.7.4-.9 1.3-.5 2s1.3.9 2 .5c1.4-.9 3.8-.9 5.2 0 .2.1.5.2.7.2.5 0 1-.2 1.2-.7.5-.7.3-1.6-.4-2m3.2-4.1c-2-1.3-4.6-2.1-7.3-2.1s-5.3.7-7.3 2.1c-.7.4-.9 1.3-.4 2 .4.7 1.3.8 2 .4 1.5-1 3.6-1.6 5.7-1.6s4.2.6 5.7 1.6c.2.2.5.2.8.2q.75 0 1.2-.6c.5-.7.3-1.6-.4-2"/><path fill="#000" d="M22.4 5.412c-2.8-2-6.5-3.1-10.4-3.1s-7.6 1.1-10.4 3.1c-.6.4-.8 1.3-.3 2 .2.3.7.6 1.1.6.3 0 .6-.1.8-.3 2.4-1.6 5.5-2.5 8.8-2.5s6.4.9 8.7 2.5c.6.5 1.5.3 2-.3.5-.7.3-1.6-.3-2"/></svg>
